icons/src/svg/profile_inactive.svg

<svg width="32" height="32" viewBox="0 0 32 32" fill="none" xmlns="http://www.w3.org/2000/svg">
<path d="M24.6481 10.6419C24.6481 13.3139 23.4354 15.7026 21.5305 17.2878L20.1085 15.8659C21.6549 14.6498 22.6481 12.7618 22.6481 10.6419C22.6481 6.97368 19.6744 4 16.0062 4C13.8863 4 11.9983 4.99316 10.7822 6.53958L9.36024 5.1176C10.9454 3.21264 13.3342 2 16.0062 2C20.779 2 24.6481 5.86911 24.6481 10.6419Z" fill="#0D0F13"/>
<path d="M7.42432 11.668C7.89158 15.6214 11.0275 18.7573 14.9809 19.2245L7.42432 11.668Z" fill="#0D0F13"/>
<path d="M9.39748 20.9746H16.7322L18.7322 22.9746H9.39748C6.41637 22.9746 3.9997 25.3922 3.99968 28.3745L3.99967 28.9998C3.99967 29.552 3.55213 29.9998 3.00007 29.9998C2.44801 29.9997 2.00048 29.552 2.00049 28.9997V28.3745C2.00052 24.2876 5.31225 20.9746 9.39748 20.9746Z" fill="#0D0F13"/>
<path d="M3.70711 2.29289C3.31658 1.90237 2.68342 1.90237 2.29289 2.29289C1.90237 2.68342 1.90237 3.31658 2.29289 3.70711L28.2929 29.7071C28.6834 30.0976 29.3166 30.0976 29.7071 29.7071C30.0976 29.3166 30.0976 28.6834 29.7071 28.2929L3.70711 2.29289Z" fill="#0D0F13"/>
</svg>

<?xml version="1.0" encoding="utf-8"?>
<!-- Generator: Adobe Illustrator 26.0.1, SVG Export Plug-In . SVG Version: 6.00 Build 0)  -->
<svg version="1.1" id="Layer_1" xmlns="http://www.w3.org/2000/svg" xmlns:xlink="http://www.w3.org/1999/xlink" x="0px" y="0px"
	 viewBox="0 0 32 32" style="enable-background:new 0 0 32 32;" xml:space="preserve">
<style type="text/css">
	.st0{fill:#0D0F13;}
</style>
<path class="st0" d="M24.6,10.6c0,2.7-1.2,5.1-3.1,6.6l-1.4-1.4c1.5-1.2,2.5-3.1,2.5-5.2C22.6,7,19.7,4,16,4c-2.1,0-4,1-5.2,2.5
	L9.4,5.1C10.9,3.2,13.3,2,16,2C20.8,2,24.6,5.9,24.6,10.6z M7.4,11.7c0.5,4,3.6,7.1,7.6,7.6L7.4,11.7z M9.4,21h7.3l2,2H9.4
	c-3,0-5.4,2.4-5.4,5.4L4,29c0,0.6-0.4,1-1,1c-0.6,0-1-0.4-1-1v-0.6C2,24.3,5.3,21,9.4,21z M3.7,2.3c-0.4-0.4-1-0.4-1.4,0
	c-0.4,0.4-0.4,1,0,1.4l26,26c0.4,0.4,1,0.4,1.4,0c0.4-0.4,0.4-1,0-1.4L3.7,2.3z"/>
</svg>
